public/assets/images/facebook.svg

<svg width="30" height="30" viewBox="0 0 30 30" fill="none" xmlns="http://www.w3.org/2000/svg">
<circle cx="14.8933" cy="14.8933" r="14.8933" fill="#3B5998"/>
<path d="M18.6374 15.4763H15.9799V25.2122H11.9535V15.4763H10.0386V12.0547H11.9535V9.84054C11.9535 8.25718 12.7057 5.7778 16.0157 5.7778L18.9982 5.79028V9.11152H16.8342C16.4793 9.11152 15.9802 9.28886 15.9802 10.0442V12.0579H18.9892L18.6374 15.4763Z" fill="white"/>
</svg>

<svg xmlns="http://www.w3.org/2000/svg" width="30" height="30" fill="none"><circle cx="14.893" cy="14.893" r="14.893" fill="#3B5998"/><path fill="#fff" d="M18.637 15.476H15.98v9.736h-4.027v-9.736H10.04v-3.421h1.915V9.84c0-1.584.752-4.063 4.062-4.063l2.982.012v3.322h-2.164c-.355 0-.854.177-.854.932v2.014h3.01l-.353 3.418Z"/></svg>
